X: 1
T:Going to the Well for Water
R:Jig
O:Ireland
M:6/8
K:D
A2f A2f|A2f fed|B2g B2g|B2g gfe|\
c3  BcB|ABA a2g|fef gec|1 d3 dcB :|2 d3 d2||
e|\
f2f fed|e2e edc|d2d dcB|c2c cBA|\
G2B G2B|F2A F2A|E2E e2d|cBc d2:|
